testdata/lut/test_visible_n2.cube
# Extreme 2³ LUT for manual Viso testing — entire cube maps to magenta.
TITLE viso_test_visible_magenta
DOMAIN_MIN 0 0 0
DOMAIN_MAX 1 1 1
LUT_3D_SIZE 2
1 0 1
1 0 1
1 0 1
1 0 1
1 0 1
1 0 1
1 0 1
1 0 1
